Yaru++/apps/symbolic/ibus-setup-symbolic.svg

<svg id="svg7384" height="16" width="16" xmlns="http://www.w3.org/2000/svg">
  <path id="path2732-8-1" d="m3.9941406 0c-1.2582.0145-2.1788906-.03060438-2.9316406.38476562-.37637.20766001-.67323062.55938688-.83789062.99804688-.16467.43867-.22460938.9595775-.22460938 1.6171875v10c0 .65761.05989938 1.178578.22460938 1.617188.16467999.43861.46153062.788523.83789062.996093.75272.41513 1.6735406.371649 2.9316406.386719h.0019532 8.0058592.003906c1.25819-.0145 2.178891.030604 2.931641-.384766.37637-.20766.673221-.559387.837891-.998046.16453-.438671.224609-.959578.224609-1.617188v-10c0-.65761-.059899-1.1785775-.224609-1.6171875-.16468-.43861-.461531-.78852375-.837891-.99609375-.75272-.41513-1.673551-.37164875-2.931641-.38671875h-.001953-8.0058591zm.0058594 1h8c1.25862.0152 2.089098.0598988 2.455078.2617188.18342.1011599.287226.2128562.384766.4726562.09741.25979.160156.673235.160156 1.265625v10c0 .59239-.062596 1.005725-.160156 1.265625-.0976.25991-.201356.371466-.384766.472656-.36596.20192-1.196558.247009-2.455078.261719h-7.9941406-.0058594c-1.25863-.0152-2.0890981-.059899-2.4550781-.261719-.18342-.10116-.2872257-.212856-.3847657-.472656-.09755-.25979-.1601562-.673235-.1601562-1.265625v-10c0-.59239.0625962-1.005725.1601562-1.265625.0976-.25991.2033088-.3714662.3867188-.4726562.36595-.20191 1.194605-.2470188 2.453125-.2617188zm3.9921875 1c-.3546795 0-.6629022.1233807-.921875.3710938-.2533424.2477125-.3789062.5559352-.3789063.921875.0000001.3659392.1255639.6743914.3789063.9277343.2533429.2477131.5615657.3710938.921875.3710938.3659397 0 .6722088-.1255633.9199219-.3789063.2477125-.2589728.3710937-.5652424.3710937-.9199218 0-.3603099-.1255638-.6643969-.3789062-.9121094-.2477131-.253343-.5517995-.3808594-.9121094-.3808594zm-2.0273437 4.0625v.5566406l.8105468.203125v6.4179684l-.8613281.203125v.556641h4.1718755v-.556641l-.8691411-.203125v-7.177734z" fill="#808080"/>
</svg>

<?xml version="1.0" encoding="UTF-8" standalone="no"?>
<svg
   xmlns:osb="http://www.openswatchbook.org/uri/2009/osb"
   xmlns:dc="http://purl.org/dc/elements/1.1/"
   xmlns:cc="http://creativecommons.org/ns#"
   xmlns:rdf="http://www.w3.org/1999/02/22-rdf-syntax-ns#"
   xmlns:svg="http://www.w3.org/2000/svg"
   xmlns="http://www.w3.org/2000/svg"
   xmlns:sodipodi="http://sodipodi.sourceforge.net/DTD/sodipodi-0.dtd"
   xmlns:inkscape="http://www.inkscape.org/namespaces/inkscape"
   height="16"
   id="svg7384"
   version="1.1"
   width="16"
   sodipodi:docname="ibus-setup-symbolic.svg"
   inkscape:version="0.92.4 (5da689c313, 2019-01-14)">
  <sodipodi:namedview
     pagecolor="#ffffff"
     bordercolor="#666666"
     borderopacity="1"
     objecttolerance="10"
     gridtolerance="10"
     guidetolerance="10"
     inkscape:pageopacity="0"
     inkscape:pageshadow="2"
     inkscape:window-width="793"
     inkscape:window-height="480"
     id="namedview23"
     showgrid="false"
     inkscape:zoom="14.75"
     inkscape:cx="8"
     inkscape:cy="8.0873861"
     inkscape:window-x="694"
     inkscape:window-y="143"
     inkscape:window-maximized="0"
     inkscape:current-layer="g1833" />
  <metadata
     id="metadata20854">
    <rdf:RDF>
      <cc:Work
         rdf:about="">
        <dc:title></dc:title>
        <dc:format>image/svg+xml</dc:format>
        <dc:type
           rdf:resource="http://purl.org/dc/dcmitype/StillImage" />
      </cc:Work>
    </rdf:RDF>
  </metadata>
  <defs
     id="defs7386">
    <linearGradient
       id="linearGradient5606"
       osb:paint="solid">
      <stop
         id="stop5608"
         offset="0"
         style="stop-color:#000000;stop-opacity:1;" />
    </linearGradient>
    <linearGradient
       id="linearGradient4526"
       osb:paint="solid">
      <stop
         id="stop4528"
         offset="0"
         style="stop-color:#ffffff;stop-opacity:1;" />
    </linearGradient>
    <linearGradient
       id="linearGradient3600-4"
       osb:paint="gradient">
      <stop
         id="stop3602-7"
         offset="0"
         style="stop-color:#f4f4f4;stop-opacity:1" />
      <stop
         id="stop3604-6"
         offset="1"
         style="stop-color:#dbdbdb;stop-opacity:1" />
    </linearGradient>
  </defs>
  <g
     id="layer9"
     label="status"
     style="display:inline"
     transform="translate(-733.00024,147)" />
  <g
     id="layer2"
     style="display:inline"
     transform="translate(-492.00004,-220)" />
  <g
     id="layer4"
     style="display:inline"
     transform="translate(-492.00004,-220)" />
  <g
     id="g1812"
     style="display:inline"
     transform="translate(-492.00004,-220)" />
  <g
     id="g6217"
     style="display:inline"
     transform="translate(-492.00004,-220)" />
  <g
     id="layer3"
     style="display:inline"
     transform="translate(-492.00004,-220)" />
  <g
     id="g1833"
     style="display:inline"
     transform="translate(-492.00004,-220)">
    <path
       style="color:#000000;font-style:normal;font-variant:normal;font-weight:normal;font-stretch:normal;font-size:medium;line-height:normal;font-family:sans-serif;font-variant-ligatures:normal;font-variant-position:normal;font-variant-caps:normal;font-variant-numeric:normal;font-variant-alternates:normal;font-feature-settings:normal;text-indent:0;text-align:start;text-decoration:none;text-decoration-line:none;text-decoration-style:solid;text-decoration-color:#000000;letter-spacing:normal;word-spacing:normal;text-transform:none;writing-mode:lr-tb;direction:ltr;text-orientation:mixed;dominant-baseline:auto;baseline-shift:baseline;text-anchor:start;white-space:normal;shape-padding:0;clip-rule:nonzero;display:inline;overflow:visible;visibility:visible;opacity:1;isolation:auto;mix-blend-mode:normal;color-interpolation:sRGB;color-interpolation-filters:linearRGB;solid-color:#000000;solid-opacity:1;vector-effect:none;fill:#808080;fill-opacity:1;fill-rule:nonzero;stroke:none;stroke-width:1.00000012;stroke-linecap:butt;stroke-linejoin:miter;stroke-miterlimit:4;stroke-dasharray:none;stroke-dashoffset:0;stroke-opacity:1;marker:none;color-rendering:auto;image-rendering:auto;shape-rendering:auto;text-rendering:auto;enable-background:accumulate"
       d="M 3.9941406 0 C 2.7359406 0.0145 1.81525 -0.030604375 1.0625 0.38476562 C 0.68613 0.59242563 0.38926938 0.9441525 0.22460938 1.3828125 C 0.059939375 1.8214825 0 2.34239 0 3 L 0 13 C 0 13.65761 0.059899375 14.178578 0.22460938 14.617188 C 0.38928937 15.055798 0.68614 15.405711 1.0625 15.613281 C 1.81522 16.028411 2.7360406 15.98493 3.9941406 16 L 3.9960938 16 L 12.001953 16 L 12.005859 16 C 13.264049 15.9855 14.18475 16.030604 14.9375 15.615234 C 15.31387 15.407574 15.610721 15.055847 15.775391 14.617188 C 15.939921 14.178517 16 13.65761 16 13 L 16 3 C 16 2.34239 15.940101 1.8214225 15.775391 1.3828125 C 15.610711 0.9442025 15.31386 0.59428875 14.9375 0.38671875 C 14.18478 -0.02841125 13.263949 0.01507 12.005859 0 L 12.003906 0 L 3.9980469 0 L 3.9941406 0 z M 4 1 L 12 1 C 13.25862 1.0152 14.089098 1.0598988 14.455078 1.2617188 C 14.638498 1.3628787 14.742304 1.474575 14.839844 1.734375 C 14.937254 1.994165 15 2.40761 15 3 L 15 13 C 15 13.59239 14.937404 14.005725 14.839844 14.265625 C 14.742244 14.525535 14.638488 14.637091 14.455078 14.738281 C 14.089118 14.940201 13.25852 14.98529 12 15 L 4.0058594 15 L 4 15 C 2.74137 14.9848 1.9109019 14.940101 1.5449219 14.738281 C 1.3615019 14.637121 1.2576962 14.525425 1.1601562 14.265625 C 1.0626062 14.005835 1 13.59239 1 13 L 1 3 C 1 2.40761 1.0625962 1.994275 1.1601562 1.734375 C 1.2577562 1.474465 1.363465 1.3629088 1.546875 1.2617188 C 1.912825 1.0598088 2.74148 1.0147 4 1 z M 7.9921875 2 C 7.637508 2 7.3292853 2.1233807 7.0703125 2.3710938 C 6.8169701 2.6188063 6.6914063 2.927029 6.6914062 3.2929688 C 6.6914063 3.658908 6.8169701 3.9673602 7.0703125 4.2207031 C 7.3236554 4.4684162 7.6318782 4.5917969 7.9921875 4.5917969 C 8.3581272 4.5917969 8.6643963 4.4662336 8.9121094 4.2128906 C 9.1598219 3.9539178 9.2832031 3.6476482 9.2832031 3.2929688 C 9.2832031 2.9326589 9.1576393 2.6285719 8.9042969 2.3808594 C 8.6565838 2.1275164 8.3524974 2 7.9921875 2 z M 5.9648438 6.0625 L 5.9648438 6.6191406 L 6.7753906 6.8222656 L 6.7753906 13.240234 L 5.9140625 13.443359 L 5.9140625 14 L 10.085938 14 L 10.085938 13.443359 L 9.2167969 13.240234 L 9.2167969 6.0625 L 5.9648438 6.0625 z "
       transform="translate(492.00004,220)"
       id="path2732-8-1" />
    <g
       aria-label="i"
       style="font-style:normal;font-weight:normal;font-size:45.03870392px;line-height:1.25;font-family:sans-serif;letter-spacing:0px;word-spacing:0px;fill:#808080;fill-opacity:1;stroke:none;stroke-width:1.12596762"
       id="text941"
       transform="matrix(0.08,0,0,0.08,489.37618,234.46604)" />
  </g>
  <g
     id="layer1"
     style="display:inline"
     transform="translate(-492.00004,-220)" />
</svg>
